X:1
T:Title
%%score ( 1 2 )
L:1/8
Q:1/4=120
M:2/4
K:G
V:1 treble nm="Part_1"
V:2 treble 
V:1
 z |[K:bass] z z !>!G,!>!B, | !>!E4- | ED CB, | A,4- | A,F, G,A, | B,3 C | B,A, G,F, | B,3 G, | %9
 E,E, G,B, | E3 B, | (GE) B,G, | A,3 C | EC A,C | B,E GE | B,A, G,F, | E, z !>!E2 | !>!B,2 G,.B, | %18
S E4 | B>A G>F | F(E/F/ G)E | !>!!^!B,E G,B, | (E2 B,>)B, | G2 G>G | G(F/G/ A)F | ^DC A,F, | %26
 A2 F^D | C(D/C/ B,)A, | G,E/F/ (G/F/)G/A/ | B4 | !>!B2 B,>C |O B,>A, G,>F, | E,4- | E, z G,A, | %34
 B,3 ^C | ^D2 E>F | (G4 | E4) | B,2 B,>^C | ^D2 E>F | !^!A>G (3GFE | D>C (3CB,A, | CB, (3GFE | %43
 B,A, G,F, | E,4- | E,B,- ^A,B, z2 |!>(! E,4-!>)! | E, z z2 | z B, EF | !^!G>F E2- | EB, EG | B4- | %52
 B2 B>B | A2 G>F | E4- | EB, EF | G>F E2- | E^G GG | A3 B | !>!c2 c>c | B2 (3GFE | BA GF | %62
!<(! !arpeggio!EE/E/ EE | E2 z z2 | EE/E/ E!<)!E | EB,- ^A,B, |[M:2/4] x4 |O E,4 | %68
 E,E,/F,/ G,/F,/G,/A,/ | B,4- | B,E,/G,/ B,/E,/G,/B,/ | E4- | EE,/G,/ B,/G,/B,/E/ | G>F E>D | %74
 C>B, A,>G, | F,4- | F,B,,/^D,/ F,/B,,/D,/F,/ | !>!A,4- | A,^D,/F,/ A,/D,/F,/A,/ | C4- | %80
 CF,/A,/ C/F,/A,/C/ | !>!B, !>!F2 !>!!tenuto!^D2 | !>!B, !>!C2 !>!B, z2 | E z z2 | %84
 (3.B,.E.B, .G,.B,.G, | E, z B,>MG, | !>!E, z .G, z | .B, z (!>!E>D | C) z .A, z | .C z F>E | %90
 [CD] z (!tenuto!B,>C | C) z !tenuto!B,->^A, | B, z!>(! G,>!>)!F, | E, z (!>!B,>G, | E,) z z x | %95
 .B, z (E>D | C) z !>!A,2- | A,2 A,>C | C>B, G,>E, | B,>A, G,>(F, | E,E,/E,/ G,B, | %101
 E z B,G,3/4 x/4 |!>(! (3:2:2E,)E,/E,/ G,B, x/!>)! | ED/D/ DD | F4- | F(E/D/ ^C/D/E/F/) | G4- | %107
 G z E2 | D2 C2 | B,2 A,2 | G,(B,/C/ D/C/B,/A,/) | G,D/D/ DD | F4 | F(E/D/ ^C/D/E/F/) | G4- | %115
 G z G>F | E3 F | G(A/G/ F)E | B(A/G/ F/E/D/C/ | B,) (z !tenuto!B,>G, | E,) z .G, z | %121
 !>!.B, z (!tenuto!E>D | C) z .A, z | .C z F>E | ^D3 x | C z !>!B,->^A, | B, (z G,>F, | %127
 E,) z (!>!B,>G, | E,) z .G, z | .B, z (E>D | C) z !>!A,2- | !>!A,2 A,>C | C>B, G,>E, | %133
 B,>A, G,>F, |!<(! E,E,/E,/ G,B, | (3:2:2ED/D/ DD x/ | (3:2:2E,E,/E,/ G,B, x/!<)! | E z z2 |] %138
V:2
 x |[K:bass] x E, x2 | x4 | x4 | x4 | x4 | x4 | x4 | x4 | x4 | x4 | x4 | x4 | x4 | x4 | x4 | x4 | %17
 x4 | x4 | x4 | x4 | x4 | x4 | x4 | x4 | x4 | x4 | x4 | x4 | x4 | x4 | x4 | x4 | x4 | x4 | x4 | %36
 x4 | x4 | x4 | x4 | x4 | x4 | x4 | x4 | x4 | x6 | x4 | x4 | x4 | x4 | x4 | x4 | x4 | x4 | x4 | %55
 x4 | x4 | x4 | x4 | x4 | x4 | x4 | x4 | x5 | x4 | x4 |[M:2/4] x4 | x4 | x4 | x4 | x4 | x4 | x4 | %73
 x4 | x4 | x4 | x4 | x4 | x4 | x4 | x4 | x5 | x6 | x4 | x5 | x4 | x4 | x4 | x4 | x4 | C4 | x4 | %92
 x4 | x4 | x4 | x4 | x4 | x4 | x4 | x4 | x4 | x4 | x4 | x4 | x4 | x4 | x4 | x4 | x4 | x4 | x4 | %111
 x4 | x4 | x4 | x4 | x4 | x4 | x4 | x4 | x4 | x4 | x4 | x4 | x4 | z z !tenuto!B,>C | x4 | x4 | x4 | %128
 x4 | x4 | x4 | x4 | x4 | x4 | x z x2 | x z/ x z/ x | x4 | x4 |] %138

